src/assets/bold/lm-shield-lock-bold.svg

<svg width="24" height="24" viewBox="0 0 24 24" fill="none" xmlns="http://www.w3.org/2000/svg" fill="currentColor">
<path d="M11.5099 2.58563C11.7897 2.33812 12.2101 2.33812 12.4899 2.58563C14.6489 4.49575 17.4667 5.49029 20.3464 5.35851C20.6867 5.34294 20.9935 5.56184 21.0896 5.88863C21.5648 7.505 21.7101 9.20038 21.5171 10.874C21.3241 12.5477 20.7966 14.1655 19.966 15.6313C19.1354 17.097 18.0186 18.3809 16.6821 19.4065C15.3455 20.4322 13.8163 21.1787 12.1856 21.6017C12.0638 21.6332 11.936 21.6332 11.8143 21.6017C10.1835 21.1787 8.65434 20.4322 7.31775 19.4065C5.98116 18.3809 4.86439 17.097 4.03378 15.6313C3.20317 14.1655 2.67569 12.5477 2.48267 10.874C2.28966 9.20038 2.43504 7.505 2.9102 5.88863C3.00627 5.56184 3.31315 5.34294 3.65342 5.35851C6.53309 5.49029 9.35094 4.49575 11.5099 2.58563ZM4.18419 6.84897C3.88215 8.10929 3.803 9.41427 3.95181 10.7046C4.12212 12.1814 4.58755 13.6088 5.32043 14.9022C6.05332 16.1955 7.03871 17.3283 8.21806 18.2333C9.34654 19.0992 10.6306 19.7397 11.9999 20.1203C13.3692 19.7397 14.6533 19.0992 15.7818 18.2333C16.9611 17.3283 17.9465 16.1955 18.6794 14.9022C19.4123 13.6088 19.8777 12.1814 20.048 10.7046C20.1968 9.41427 20.1176 8.10929 19.8156 6.84897C16.9751 6.8437 14.2197 5.87602 11.9999 4.10499C9.78015 5.87602 7.02469 6.8437 4.18419 6.84897ZM10.7799 9.80675C11.1034 9.48318 11.5423 9.30141 11.9999 9.30141C12.4575 9.30141 12.8963 9.48318 13.2199 9.80675C13.5435 10.1303 13.7252 10.5692 13.7252 11.0268C13.7252 11.4844 13.5435 11.9232 13.2199 12.2468C13.0789 12.3877 12.9161 12.5018 12.7393 12.5856V14.4775C12.7393 14.8858 12.4083 15.2169 11.9999 15.2169C11.5915 15.2169 11.2604 14.8858 11.2604 14.4775V12.5856C11.0837 12.5018 10.9208 12.3877 10.7799 12.2468C10.4563 11.9232 10.2745 11.4844 10.2745 11.0268C10.2745 10.5692 10.4563 10.1303 10.7799 9.80675ZM11.9999 10.7803C11.9345 10.7803 11.8718 10.8062 11.8256 10.8525C11.7794 10.8987 11.7534 10.9614 11.7534 11.0268C11.7534 11.0921 11.7794 11.1548 11.8256 11.201C11.8718 11.2473 11.9345 11.2732 11.9999 11.2732C12.0653 11.2732 12.1279 11.2473 12.1742 11.201C12.2204 11.1548 12.2464 11.0921 12.2464 11.0268C12.2464 10.9614 12.2204 10.8987 12.1742 10.8525C12.1279 10.8062 12.0653 10.7803 11.9999 10.7803Z" fill="black"/>
</svg>

<svg xmlns="http://www.w3.org/2000/svg" width="24" height="24" fill="currentColor" viewBox="0 0 24 24">
  <path d="M11.51 2.586a.74.74 0 0 1 .98 0 11.091 11.091 0 0 0 7.856 2.773.74.74 0 0 1 .744.53 12.57 12.57 0 0 1-8.904 15.713.741.741 0 0 1-.372 0A12.57 12.57 0 0 1 2.91 5.889a.74.74 0 0 1 .743-.53c2.88.131 5.698-.863 7.857-2.773ZM4.184 6.849A11.092 11.092 0 0 0 12 20.12a11.093 11.093 0 0 0 7.816-13.27A12.57 12.57 0 0 1 12 4.105a12.57 12.57 0 0 1-7.816 2.744Zm6.596 2.958a1.725 1.725 0 1 1 1.96 2.779v1.891a.74.74 0 0 1-1.48 0v-1.891a1.725 1.725 0 0 1-.48-2.78Zm1.22.973a.246.246 0 1 0 0 .493.246.246 0 0 0 0-.493Z"/>
</svg>
